assets/js/back-end/assets/icons/multiple-choice.svg

<svg clip-rule="evenodd" fill-rule="evenodd" stroke-linejoin="round" stroke-miterlimit="2" viewBox="0 0 28 28" xmlns="http://www.w3.org/2000/svg"><path d="m3.593 3.475h21.773v21.371h-21.773z" fill="#ebebeb"/><path d="m28 3c0-1.656-1.344-3-3-3h-22c-1.656 0-3 1.344-3 3v22c0 1.656 1.344 3 3 3h22c1.656 0 3-1.344 3-3zm-16.375 16.881-3.576-3.576-1.535 1.536 5.111 5.111 10.542-10.541-1.536-1.535zm0-5.833-3.576-3.576-1.535 1.536 5.111 5.111 10.542-10.541-1.536-1.536z" fill="#3bc3c3"/></svg>

<?xml version="1.0" encoding="UTF-8" standalone="no"?>
<!DOCTYPE svg PUBLIC "-//W3C//DTD SVG 1.1//EN" "http://www.w3.org/Graphics/SVG/1.1/DTD/svg11.dtd">
<svg width="100%" height="100%" viewBox="0 0 28 28" version="1.1" xmlns="http://www.w3.org/2000/svg" xmlns:xlink="http://www.w3.org/1999/xlink" xml:space="preserve" xmlns:serif="http://www.serif.com/" style="fill-rule:evenodd;clip-rule:evenodd;stroke-linejoin:round;stroke-miterlimit:2;">
    <path d="M28,3C28,1.344 26.656,0 25,0L3,0C1.344,0 0,1.344 0,3L0,25C0,26.656 1.344,28 3,28L25,28C26.656,28 28,26.656 28,25L28,3ZM11.625,19.881L8.049,16.305L6.514,17.841L11.625,22.952L22.167,12.411L20.631,10.876L11.625,19.881ZM11.625,14.048L8.049,10.472L6.514,12.008L11.625,17.119L22.167,6.578L20.631,5.042L11.625,14.048Z" style="fill:rgb(59,195,195);"/>
</svg>
